X: 1
T: the 72nd's Farewell to Aberdeen
T: a Boy's Lament for His Dragon
M: C|
S: Roaring Jelly collection
R: reel
K: D
B2 |\
"D"A2d2 d2ef | "D"gfed f4 |\
[1,3 "G"g2B2 "Em"B2cd | "A"efed c2 :|\
[2,4 "Em"g2B2 "A"cdec | "D"d4- d2 :|
|: fg |\
"D"a2A2 A2=c2 | "G"B2G2 "A"A4 |\
[1,3 "D"A2d2 "Bm"dcde | "Em"f2e2 "A"e2 :|\
[2,4 "D"A2d2 "A"fedc | "D"d4- d2 :|
